priv/static/svgs/country_flags/JE.svg

<?xml version="1.0" encoding="UTF-8"?>
<svg id="item" width="21px" height="15px" viewBox="0 0 21 15" version="1.1" xmlns="http://www.w3.org/2000/svg" xmlns:xlink="http://www.w3.org/1999/xlink">
    <defs>
        <linearGradient x1="50%" y1="0%" x2="50%" y2="100%" id="linearGradient-1">
            <stop stop-color="#FFFFFF" offset="0%"></stop>
            <stop stop-color="#F0F0F0" offset="100%"></stop>
        </linearGradient>
        <linearGradient x1="50%" y1="0%" x2="50%" y2="100%" id="linearGradient-2">
            <stop stop-color="#EF273F" offset="0%"></stop>
            <stop stop-color="#DB1C33" offset="100%"></stop>
        </linearGradient>
        <linearGradient x1="50%" y1="0%" x2="50%" y2="100%" id="linearGradient-3">
            <stop stop-color="#F22A41" offset="0%"></stop>
            <stop stop-color="#E51D34" offset="100%"></stop>
        </linearGradient>
        <linearGradient x1="50%" y1="0%" x2="50%" y2="100%" id="linearGradient-4">
            <stop stop-color="#FADF46" offset="0%"></stop>
            <stop stop-color="#F9DC38" offset="100%"></stop>
        </linearGradient>
    </defs>
    <g id="Symbols" stroke="none" stroke-width="1" fill="none" fill-rule="evenodd">
        <g id="JE">
            <rect id="FlagBackground" fill="url(#linearGradient-1)" x="0" y="0" width="21" height="15"></rect>
            <path d="M10.5002378,6.29111667 L-0.961614117,-1.44000006 L-2.07999992,0.218075088 L8.71194613,7.49733462 L-2.07999992,14.7765941 L-0.961614117,16.4346693 L10.5002378,8.70355256 L21.9620897,16.4346693 L23.0804755,14.7765941 L12.2885294,7.49733462 L23.0804755,0.218075088 L21.9620897,-1.44000006 L10.5002378,6.29111667 Z" id="Rectangle-2" fill="url(#linearGradient-2)"></path>
            <path d="M9.00023778,2.50201906 C9.00023778,2.22328954 9.21599038,1.99733462 9.49562677,1.99733462 L11.5048488,1.99733462 C11.7784446,1.99733462 12.0002378,2.21136965 12.0002378,2.50201906 L12.0002378,3.49265017 C12.0002378,3.77137969 11.8397115,4.15786089 11.6523374,4.34523501 L10.8481382,5.14943423 C10.6559981,5.34157431 10.3397115,5.33680834 10.1523374,5.14943423 L9.34813817,4.34523501 C9.15599809,4.15309493 9.00023778,3.78329958 9.00023778,3.49265017 L9.00023778,2.50201906 Z" id="Rectangle-1462" fill="url(#linearGradient-3)"></path>
            <path d="M10.5002378,3.99733462 C10.2240954,3.99733462 10.0002378,3.77347699 10.0002378,3.49733462 C10.0002378,3.22119224 10.2240954,2.99733462 10.5002378,2.99733462 C10.7763802,2.99733462 11.0002378,3.22119224 11.0002378,3.49733462 C11.0002378,3.77347699 10.7763802,3.99733462 10.5002378,3.99733462 Z M10.5002378,1.99733462 C9.67181066,1.99733462 9.00023778,1.77347699 9.00023778,1.49733462 C9.00023778,1.22119224 9.67181066,0.997334616 10.5002378,0.997334616 C11.3286649,0.997334616 12.0002378,1.22119224 12.0002378,1.49733462 C12.0002378,1.77347699 11.3286649,1.99733462 10.5002378,1.99733462 Z" id="Combined-Shape" fill="url(#linearGradient-4)"></path>
        </g>
    </g>
</svg>

<svg width="21" height="15" viewBox="0 0 21 15" xmlns="http://www.w3.org/2000/svg"><defs><linearGradient x1="50%" y1="0%" x2="50%" y2="100%" id="a"><stop stop-color="#FFF" offset="0%"/><stop stop-color="#F0F0F0" offset="100%"/></linearGradient><linearGradient x1="50%" y1="0%" x2="50%" y2="100%" id="b"><stop stop-color="#EF273F" offset="0%"/><stop stop-color="#DB1C33" offset="100%"/></linearGradient><linearGradient x1="50%" y1="0%" x2="50%" y2="100%" id="c"><stop stop-color="#F22A41" offset="0%"/><stop stop-color="#E51D34" offset="100%"/></linearGradient><linearGradient x1="50%" y1="0%" x2="50%" y2="100%" id="d"><stop stop-color="#FADF46" offset="0%"/><stop stop-color="#F9DC38" offset="100%"/></linearGradient></defs><g fill="none" fill-rule="evenodd"><path fill="url(#a)" d="M0 0h21v15H0z"/><path d="M10.5 6.291-.962-1.44-2.08.218l10.792 7.28-10.792 7.279 1.118 1.658L10.5 8.704l11.462 7.73 1.118-1.657-10.791-7.28L23.08.218 21.962-1.44 10.5 6.291Z" fill="url(#b)"/><path d="M9 2.502c0-.279.216-.505.496-.505h2.009c.273 0 .495.214.495.505v.99c0 .28-.16.666-.348.853l-.804.804a.496.496 0 0 1-.696 0l-.804-.804A1.354 1.354 0 0 1 9 3.493v-.991Z" fill="url(#c)"/><path d="M10.5 3.997a.5.5 0 1 1 0-1 .5.5 0 0 1 0 1Zm0-2c-.828 0-1.5-.224-1.5-.5s.672-.5 1.5-.5c.829 0 1.5.224 1.5.5s-.671.5-1.5.5Z" fill="url(#d)"/></g></svg>
